dist/icons/schedule.svg

<?xml version="1.0" encoding="utf-8"?>
<!-- Generated by IcoMoon.io -->
<!DOCTYPE svg PUBLIC "-//W3C//DTD SVG 1.1//EN" "http://www.w3.org/Graphics/SVG/1.1/DTD/svg11.dtd">
<svg version="1.1" xmlns="http://www.w3.org/2000/svg" xmlns:xlink="http://www.w3.org/1999/xlink" width="20" height="20" viewBox="0 0 20 20">
<path d="M17 3h-0.9v2h-3.2v-2h-5.8v2h-3.2v-2h-0.9c-1.1 0-2 0.9-2 2v12c0 1.1 0.9 2 2 2h14c1.1 0 2-0.9 2-2v-12c0-1.1-0.9-2-2-2zM17 17h-14v-8h14v8zM6.2 1h-1.4v3.4h1.4v-3.4zM15.2 1h-1.4v3.4h1.4v-3.4z"></path>
</svg>

<svg xmlns="http://www.w3.org/2000/svg" width="20" height="20" viewBox="0 0 20 20"><path d="M17 3h-.9v2h-3.2V3H7.1v2H3.9V3H3c-1.1 0-2 .9-2 2v12c0 1.1.9 2 2 2h14c1.1 0 2-.9 2-2V5c0-1.1-.9-2-2-2zm0 14H3V9h14v8zM6.2 1H4.8v3.4h1.4V1zm9 0h-1.4v3.4h1.4V1z"/></svg>
